assets/img/icon-timer.svg

<svg width="16" height="16" viewBox="0 0 16 16" fill="none" xmlns="http://www.w3.org/2000/svg">
<path fill-rule="evenodd" clip-rule="evenodd" d="M6 0.583008C5.58579 0.583008 5.25 0.918794 5.25 1.33301C5.25 1.74722 5.58579 2.08301 6 2.08301H10C10.4142 2.08301 10.75 1.74722 10.75 1.33301C10.75 0.918794 10.4142 0.583008 10 0.583008H6ZM2.91663 8.83333C2.91663 6.02755 5.19417 3.75 7.99996 3.75C10.8057 3.75 13.0833 6.02755 13.0833 8.83333C13.0833 11.6391 10.8057 13.9167 7.99996 13.9167C5.19417 13.9167 2.91663 11.6391 2.91663 8.83333ZM7.99996 2.25C4.36575 2.25 1.41663 5.19912 1.41663 8.83333C1.41663 12.4675 4.36575 15.4167 7.99996 15.4167C11.6342 15.4167 14.5833 12.4675 14.5833 8.83333C14.5833 5.19912 11.6342 2.25 7.99996 2.25ZM8.74996 5.33333C8.74996 4.91912 8.41417 4.58333 7.99996 4.58333C7.58575 4.58333 7.24996 4.91912 7.24996 5.33333V8.66667C7.24996 9.08088 7.58575 9.41667 7.99996 9.41667C8.41417 9.41667 8.74996 9.08088 8.74996 8.66667V5.33333Z" fill="#17192A"/>
</svg>

<svg width="16" height="16" fill="none" xmlns="http://www.w3.org/2000/svg"><path fill-rule="evenodd" clip-rule="evenodd" d="M6 .583a.75.75 0 000 1.5h4a.75.75 0 000-1.5H6zm-3.083 8.25A5.085 5.085 0 018 3.75a5.085 5.085 0 015.083 5.083A5.086 5.086 0 018 13.917a5.085 5.085 0 01-5.083-5.084zM8 2.25a6.585 6.585 0 00-6.583 6.583A6.586 6.586 0 008 15.417a6.586 6.586 0 006.583-6.584A6.585 6.585 0 008 2.25zm.75 3.083a.75.75 0 00-1.5 0v3.334a.75.75 0 001.5 0V5.333z" fill="#17192A"/></svg>
